contributed-vectors/helio.svg

<?xml version="1.0" encoding="UTF-8" standalone="no"?>
<svg
   xmlns:dc="http://purl.org/dc/elements/1.1/"
   xmlns:cc="http://creativecommons.org/ns#"
   xmlns:rdf="http://www.w3.org/1999/02/22-rdf-syntax-ns#"
   xmlns:svg="http://www.w3.org/2000/svg"
   xmlns="http://www.w3.org/2000/svg"
   xmlns:sodipodi="http://sodipodi.sourceforge.net/DTD/sodipodi-0.dtd"
   xmlns:inkscape="http://www.inkscape.org/namespaces/inkscape"
   viewBox="0 0 192 192"
   version="1.1"
   id="svg16"
   sodipodi:docname="helio.svg"
   inkscape:version="0.92.4 (5da689c313, 2019-01-14)">
  <metadata
     id="metadata20">
    <rdf:RDF>
      <cc:Work
         rdf:about="">
        <dc:format>image/svg+xml</dc:format>
        <dc:type
           rdf:resource="http://purl.org/dc/dcmitype/StillImage" />
        <dc:title></dc:title>
      </cc:Work>
    </rdf:RDF>
  </metadata>
  <sodipodi:namedview
     pagecolor="#ffffff"
     bordercolor="#666666"
     borderopacity="1"
     objecttolerance="10"
     gridtolerance="10"
     guidetolerance="10"
     inkscape:pageopacity="0"
     inkscape:pageshadow="2"
     inkscape:window-width="1920"
     inkscape:window-height="1017"
     id="namedview18"
     showgrid="false"
     inkscape:zoom="1.7383042"
     inkscape:cx="108.28331"
     inkscape:cy="93.67496"
     inkscape:window-x="-8"
     inkscape:window-y="-8"
     inkscape:window-maximized="1"
     inkscape:current-layer="svg16">
    <inkscape:grid
       type="xygrid"
       id="grid827"
       spacingx="4"
       spacingy="4" />
  </sodipodi:namedview>
  <defs
     id="defs4">
    <style
       id="style2">.a{fill:none;stroke:#b1b5bd;stroke-linecap:round;stroke-linejoin:round;isolation:isolate;opacity:0.63;}</style>
  </defs>
  <rect
     class="a"
     x="20"
     y="20"
     width="152"
     height="152"
     rx="10"
     id="rect6"
     style="fill:#54688c;stroke:none;opacity:1" />
  <path
     style="fill:#ffffff;stroke:none;stroke-width:1px;stroke-linecap:butt;stroke-linejoin:miter;stroke-opacity:1"
     d="M 69.464844 103.83984 L 53.787109 127.28125 L 56.208984 128.57422 L 71.457031 105.3418 L 69.464844 103.83984 z M 82.568359 113.7207 L 69.21875 135.51758 L 77.259766 139.81055 L 89.982422 119.3125 L 82.568359 113.7207 z M 92.642578 121.31641 L 80.857422 141.73047 L 88.525391 145.82422 L 100.15039 126.97852 L 92.642578 121.31641 z M 103.07422 129.18359 L 92.259766 147.81641 L 99.669922 151.77148 L 110.47461 134.76562 L 103.07422 129.18359 z M 113.97266 137.40234 L 103.50781 153.82031 L 111.12891 157.88867 L 120.66797 142.45117 L 113.97266 137.40234 z M 124.42578 145.28516 L 115.09766 160.00586 L 121.95703 163.66797 L 130.875 150.14844 L 124.42578 145.28516 z "
     id="path843" />
  <path
     style="fill:#ffffff;stroke:none;stroke-width:1px;stroke-linecap:butt;stroke-linejoin:miter;stroke-opacity:1"
     d="M 76.798828 149.86133 L 68.457031 171.86523 L 69.273438 172 L 71.03125 172 L 78.925781 150.82422 L 76.798828 149.86133 z M 88.509766 155.16602 L 82.486328 172 L 91.013672 172 L 96.306641 158.69922 L 88.509766 155.16602 z M 100.30078 160.50977 L 96.189453 172 L 105.47852 172 L 108.15234 164.06641 L 100.30078 160.50977 z M 111.97656 165.79883 L 109.58594 172 L 118.79883 172 L 119.65625 169.27734 L 111.97656 165.79883 z "
     id="path845" />
  <path
     style="fill:#ffffff;stroke:none;stroke-width:1px;stroke-linecap:butt;stroke-linejoin:miter;stroke-opacity:1"
     d="M 74.785156 48.326172 L 49.042969 72.630859 L 51.337891 74.564453 L 76.199219 50.027344 L 74.785156 48.326172 z M 82.792969 57.970703 L 59.498047 81.443359 L 65.583984 86.572266 L 88.294922 64.595703 L 82.792969 57.970703 z M 91.095703 67.96875 L 69.431641 89.816406 L 76.052734 95.394531 L 96.628906 74.634766 L 91.095703 67.96875 z M 99.398438 77.970703 L 79.363281 98.185547 L 85.363281 103.24219 L 104.97656 84.6875 L 99.398438 77.970703 z M 107.26953 87.451172 L 89.164062 106.44531 L 95.185547 111.51953 L 113.01758 94.373047 L 107.26953 87.451172 z M 115.73242 97.642578 L 98.898438 114.65039 L 105.00391 119.79688 L 121.22852 104.26172 L 115.73242 97.642578 z M 123.78125 107.33789 L 108.69922 122.91016 L 115.66211 128.7793 L 129.67383 114.43359 L 123.78125 107.33789 z M 132.0625 117.31055 L 118.42969 131.11133 L 124.84961 136.52148 L 137.66602 124.05859 L 132.0625 117.31055 z M 140.89258 127.94336 L 128.82031 139.86914 L 135.04492 145.11523 L 146.55078 134.75977 L 140.89258 127.94336 z "
     id="path847" />
  <path
     style="fill:#ffffff;stroke:none;stroke-width:1px;stroke-linecap:butt;stroke-linejoin:miter;stroke-opacity:1"
     d="m 134.03906,60.550781 -23.58594,14.667969 1.60014,2.252747 23.1069,-14.694153 z m 3.8125,7.572266 -22.91992,13.259765 4.97656,6.847657 21.63282,-12.78125 z m 5.7461,11.414062 -20.73047,12.767579 4.98633,6.863281 19.5,-12.171875 z m 5.8125,11.542969 -19.31055,11.179692 5.08984,7.0039 18.04883,-10.580076 z m 5.82617,11.572262 -17.10547,10.66016 4.72852,6.50781 16.35351,-9.27148 z m 5.90625,11.72852 -15.41406,9.38867 4.8496,6.67578 14.5254,-8.19726 z"
     id="path849"
     inkscape:connector-curvature="0"
     sodipodi:nodetypes="cccccccccccccccccccccccccccccc" />
  <path
     style="fill:#ffffff"
     d="M 172 69.138672 L 151.29688 76.226562 L 152.25195 78.347656 L 172 71.716797 L 172 69.138672 z M 172 82.201172 L 156.61719 87.875 L 157.02148 88.931641 L 160.03906 95.630859 L 172 91.041016 L 172 82.201172 z M 172 95.355469 L 161.66211 99.232422 L 165.41211 107.55469 L 172 104.77539 L 172 95.355469 z M 172 109.57031 L 167.16602 111.45117 L 170.28125 118.36523 L 172 117.7793 L 172 109.57031 z "
     id="path851" />
</svg>

<svg xmlns="http://www.w3.org/2000/svg" viewBox="0 0 192 192"><rect width="152" height="152" x="20" y="20" rx="10" style="fill:#54688c;stroke:none;opacity:1;stroke-linecap:round;stroke-linejoin:round;isolation:isolate"/><path d="M69.465 103.84 53.787 127.28l2.422 1.293 15.248-23.232-1.992-1.502zm13.103 9.88-13.35 21.798 8.042 4.293 12.722-20.499-7.414-5.591zm10.075 7.596L80.857 141.73l7.668 4.094 11.625-18.845-7.507-5.663zm10.431 7.868L92.26 147.816l7.41 3.955 10.805-17.005-7.4-5.582zm10.899 8.218-10.465 16.418 7.62 4.069 9.54-15.438-6.695-5.049zm10.453 7.883-9.328 14.72 6.859 3.663 8.918-13.52-6.45-4.863zM76.799 149.861l-8.342 22.004.816.135h1.758l7.895-21.176-2.127-.963zm11.71 5.305L82.487 172h8.528l5.293-13.3-7.797-3.534zm11.792 5.344L96.189 172h9.29l2.673-7.934-7.851-3.556zm11.676 5.289L109.586 172h9.213l.857-2.723-7.68-3.478zM74.785 48.326 49.043 72.631l2.295 1.933 24.861-24.537-1.414-1.7zm8.008 9.645L59.498 81.443l6.086 5.13 22.71-21.977-5.501-6.625zm8.303 9.998L69.432 89.816l6.62 5.579 20.577-20.76-5.533-6.666zm8.302 10.002L79.363 98.186l6 5.056 19.614-18.555-5.579-6.716zm7.872 9.48-18.106 18.994 6.022 5.075 17.832-17.147-5.748-6.922zm8.462 10.192L98.898 114.65l6.106 5.147 16.225-15.535-5.497-6.62zm8.05 9.695-15.083 15.572 6.963 5.87 14.012-14.346-5.893-7.096zm8.28 9.973-13.632 13.8 6.42 5.41 12.816-12.462-5.603-6.748zm8.83 10.632L128.82 139.87l6.225 5.246 11.506-10.355-5.658-6.817zM134.04 60.55 110.452 75.22l1.6 2.252 23.107-14.694zm3.812 7.573-22.92 13.26 4.976 6.847 21.633-12.78zm5.746 11.414-20.73 12.768 4.986 6.863 19.5-12.172zm5.812 11.543-19.31 11.18 5.09 7.004 18.048-10.58zm5.826 11.572-17.105 10.66 4.728 6.508 16.354-9.271zm5.907 11.729-15.414 9.389 4.85 6.675 14.525-8.197z" style="fill:#fff;stroke:none;stroke-width:1px;stroke-linecap:butt;stroke-linejoin:miter;stroke-opacity:1"/><path d="m172 69.139-20.703 7.088.955 2.12L172 71.718v-2.578zm0 13.062-15.383 5.674.404 1.057 3.018 6.699L172 91.04v-8.84zm0 13.154-10.338 3.877 3.75 8.323 6.588-2.78v-9.42zm0 14.215-4.834 1.881 3.115 6.914 1.719-.586v-8.209z" style="fill:#fff"/></svg>
